!!!COM: Scriabin, Alexander
!!!OTL@@FR: Prélude
!!!OTL@@EN: Prelude
!!!OPR@@FR: 2 Préludes
!!!OPR@@EN: 2 Preludes
!!!OPS: 67
!!!ONM: 1
!!!ODT: 1912
!!!AGN: Prelude
**kern	**kern	**dynam
*staff2	*staff1	*staff1/2
*Ipiano	*Ipiano	*
*clefF4	*clefG2	*
*k[]	*k[]	*
*X:	*X:	*
*M5/8	*M5/8	*
=1	=1	=1
*	*^	*
4.CC 4.FF#X 4.E	4.B-X	8a-XL	.
.	.	8e-X	.
.	.	8en	.
4EE-X 4AAn 4F-X	4B- 4d-X	8g	.
.	.	8g-XJ	.
=2	=2	=2	=2
4.CC 4.FF#X 4.En	4.B-X	8a-XL	.
.	.	8e-X	.
.	.	8en	.
4EE-X 4AAn 4F-X	4B- 4d-X	8gn	.
.	.	8g-XJ	.
=3	=3	=3	=3
4.CC 4.FF#X 4.En	4.B-X	8a-XL	.
.	.	8f#X	.
.	.	8g	.
[4FF# [4C [4G	[4d-X [4e	8b-X	.
.	.	8anJ	.
=4	=4	=4	=4
4.FF#_ 4.C_ 4.G_	4.d-_ 4.e_	8dd-XL	.
.	.	8cc	.
.	.	8a	.
4FF#] 4C] 4G]	4d-] 4e]	8g	.
.	.	8eJ	.
=5	=5	=5	=5
4.CC 4.FF#X 4.E	4.B-X	8a-XL	.
.	.	8f#X	.
.	.	8g	.
[4FF# [4C [4G	[4d-X [4e	8b-X	.
.	.	8anJ	.
!!LO:LB:g=original
=6	=6	=6	=6
4.FF#_ 4.C_ 4.G_	4.d-_ 4.e_	8dd-XL	.
.	.	8f#X	.
.	.	8g	.
4FF#] 4C] 4G]	4d-] 4e]	8b-X	.
.	.	8aJ	.
=7	=7	=7	=7
4.CC 4.FF#X 4.E	4.B-X	8a-XL	.
.	.	8e-X	.
.	.	8en	.
4EE-X 4AA 4F-X	4B- 4d-X	8g	.
.	.	8g-XJ	.
=8	=8	=8	=8
4.CC 4.FF#X 4.E	4.B-X	8a-XL	.
.	.	8e-X	.
.	.	8en	.
4EE-X 4AA 4F-X	4B- 4d-X	8gn	.
.	.	8g-XJ	.
=9	=9	=9	=9
4.CC 4.FF#X 4.E	4.B-X	8a-XL	.
.	.	8f#X	.
.	.	8g	.
[4FF#X [4C [4G	[4d-X [4e	8b-X	.
.	.	8anJ	.
=10	=10	=10	=10
4.FF#_ 4.C_ 4.G_	4.d-_ 4.e_	8dd-XL	.
.	.	8cc	.
.	.	8a	.
4FF#] 4C] 4G]	4d-] 4e]	8g	.
.	.	8eJ	.
=11	=11	=11	=11
4.CC 4.FF#X 4.E	4.B-X	8a-XL	.
.	.	8f#X	.
.	.	8g	.
[4FF# [4C [4G	[4d-X [4e	8b-X	.
.	.	8anJ	.
!!LO:LB:g=original
=12	=12	=12	=12
4.FF#] 4.C] 4.G]	4.d-] 4.e]	8dd-XL	.
.	.	8a	.
.	.	8b-X	.
4F#X 4c	4e 4g	8dd#X	.
.	.	8ccJ	.
*	*v	*v	*
=13	=13	=13
[4.E [4.B-X	[4.fn [4.dd-X [4.ee	.
4E_ 4B-_	4f_ 4dd-_ 4ee_	.
=14	=14	=14
*	*^	*
4.E] 4.B-]	8dd-L]	4.f] 4.ee]	.
.	8cc	.	.
.	8aJ	.	.
4GG 4C#X 4Bn	8eL	4a-X 4ff	.
.	8e-XJ	.	.
=15	=15	=15	=15
[4.EE [4.AA#X [4.Fn [4.B	[4.dn [4.g#X	8ff#XL	.
.	.	8cc#X	.
.	.	8dd	.
4EE_ 4AA#_ 4F_ 4B_	4d_ 4g#_	8ffn	.
.	.	8eeJ	.
=16	=16	=16	=16
4.EE_ 4.AA#_ 4.F_ 4.B_	4.d_ 4.g#_	8gg#XL	.
.	.	8ggn	.
.	.	8ee	.
4EE] 4AA#] 4F] 4B]	4d] 4g#]	8dd	.
.	.	8bJ	.
*	*v	*v	*
=17	=17	=17
[4.D#X [4.A	[4.e [4.cc [4.dd#X	.
4D#_ 4A_	4e_ 4cc_ 4dd#_	.
!!LO:LB:g=original
=18	=18	=18
*	*^	*
4.D#] 4.A]	8ccL]	4.e] 4.dd#]	.
.	8b	.	.
.	8g#XJ	.	.
4FF#X 4BB#X 4A#X	8d#XL	4gn 4ee	.
.	8dnJ	.	.
=19	=19	=19	=19
[4.EE-X [4.AAn [4.F-X [4.B-X	[4.d-X [4.g	8ffnL	.
.	.	8cc	.
.	.	8dd-X	.
4EE-_ 4AA_ 4F-_ 4B-_	4d-_ 4g_	8ff-X	.
.	.	8ee-XJ	.
=20	=20	=20	=20
4.EE-_ 4.AA_ 4.F-_ 4.B-_	4.d-_ 4.g_	8ggL	.
.	.	8gg-X	.
.	.	8ee-X	.
4EE-] 4AA] 4F-] 4B-]	4d-] 4g]	8dd-X	.
.	.	8b-XJ	.
=21	=21	=21	=21
4.FF#X 4.BB#X 4.A#X	4.en	8ddnL	.
.	.	8a	.
.	.	8a#X	.
[4AA [4D#X [4B-X	[4e [4g	8cc#X	.
.	.	8ccnJ	.
=22	=22	=22	=22
4.AA_ 4.D#_ 4.B-_	4.e_ 4.g]	8eeL	.
.	.	8ee-X	.
.	.	8cc	.
4AA] 4D#] 4B-]	4e]	8b-X	.
.	.	8gJ	.
=23	=23	=23	=23
4.EE-X 4.AA 4.G	4.d-X	8cc-XL	.
.	.	8g-X	.
.	.	8gn	.
[4FF#X [4C [4G	[4d- [4e	8b-X	.
.	.	8aJ	.
!!LO:LB:g=original
=24	=24	=24	=24
4.FF#_ 4.C_ 4.G_	4.d-_ 4.e_	8dd-XL	.
.	.	8cc	.
.	.	8a	.
4FF#_ 4C_ 4G_	4d-_ 4e]	8g	.
.	.	[8eJ	.
=25	=25	=25	=25
4.FF#_ 4.C_ 4.G_	4.d-_ [4.e	8eL]	.
.	.	8f#X	.
.	.	8g	.
4FF#_ 4C_ 4G_	4d-_ 4e_	8b-X	.
.	.	8anJ	.
=26	=26	=26	=26
4.FF#_ 4.C_ 4.G_	4.d-_ 4.e_	8dd-XL	.
.	.	8f#X	.
.	.	8g	.
4FF#] 4C] 4G]	4d-] 4e]	8b-X	.
.	.	8aJ	.
=27	=27	=27	=27
4.CC 4.FF#X 4.E	4.B-X	8a-XL	.
.	.	8e-X	.
.	.	8en	.
4EE-X 4AAn 4F-X	4B- 4d-X	8g	.
.	.	8g-XJ	.
=28	=28	=28	=28
4.CC 4.FF#X 4.En	4.B-X	8a-XL	.
.	.	8e-X	.
.	.	8en	.
4EE-X 4AAn 4F-X	4B- 4d-X	8gn	.
.	.	8g-XJ	.
=29	=29	=29	=29
4.CC 4.FF#X 4.En	4.B-X	8a-XL	.
.	.	8f#X	.
.	.	8g	.
[4FF#X [4C [4G	[4d-X [4e	8b-X	.
.	.	8anJ	.
!!LO:LB:g=original
=30	=30	=30	=30
4.FF#] 4.C] 4.G]	4.d-] 4.e]	8dd-XL	.
.	.	8f#X	.
.	.	8g	.
4FF#X 4C 4G	4d-X 4e	8b-X	.
.	.	8aJ	.
=31	=31	=31	=31
4.CC 4.FF#X 4.E	4.B-X	8a-XL	.
.	.	8f#X	.
.	.	8g	.
[4FF# [4C [4G	[4d-X [4e	8b-X	.
.	.	8anJ	.
=32	=32	=32	=32
4.FF#_ 4.C_ 4.G_	4.d-_ 4.e_	8dd-XL	.
.	.	8f#X	.
.	.	8g	.
4FF#_ 4C_ 4G_	4d-_ 4e_	8b-X	.
.	.	8aJ	.
=33	=33	=33	=33
4.FF#_ 4.C_ 4.G_	4.d-_ 4.e_	8dd-XL	.
.	.	8f#X	.
.	.	8g	.
4FF#_ 4C_ 4G_	4d-_ 4e_	8b-X	.
.	.	8aJ	.
=34	=34	=34	=34
4.FF#_ 4.C_ 4.G_	4.d-_ 4.e_	8dd-XL	.
.	.	8a	.
.	.	8b-X	.
4FF#] 4C] 4G]	4d-] 4e]	8ee-X	.
.	.	8ccJ	.
*	*v	*v	*
=35	=35	=35
[4.CC [4.FF#X [4.D-X [4.G	[4.d-X [4.e [4.b-X [4.een	.
4CC] 4FF#] 4D-] 4G]	4d-] 4e] 4b-] 4ee]	.
==	==	==
*-	*-	*-
!!!system-decoration: {(*)}
!!!filter: flipper -a
!!!ENC: Bryan Jacob Bell
!!!END: November 2021 to April 2022
!!!PED: Günter Philipp
!!!PTL: Ausgewählte Klavierwerke (Edition Peters)
